X: 222
T: A Happy Day In June
R: waltz
M: 3/4
K: Amajor
|:ef/2g/2 a2 ag|ed c2 BA|AB BB cc|E4 AG|
EF a2 ag|ed c2 BA|AB ce- eA|cB-B2 dc|
A2 a2 ag|ed c2 BA|AB BB cc|E4-EE|
EF FF GG|GA AA BB|Bc ed cA-|1 A6:|2 A4 AG||
F4 AG|F2 FG AA|AB BB cc|E4 AG|
F2 EF- FE|FE DC B,A,|D2 DE- EE|CB,3 AG|
F4 AG|F2 FG AA|AB BB cc|E4 AG|
EF FF GG|GA AA BB|Bc ed cA-|A6|

